src/components/Icon/utils/svgsOptimized/eye.svg

<svg width="24" height="24" viewBox="0 0 24 24"  xmlns="http://www.w3.org/2000/svg">
<path d="M13.49 11.995C13.49 12.8234 12.8184 13.495 11.99 13.495C11.1615 13.495 10.49 12.8234 10.49 11.995C10.49 11.1666 11.1615 10.495 11.99 10.495C12.8184 10.495 13.49 11.1666 13.49 11.995Z" />
<path fill-rule="evenodd" clip-rule="evenodd" d="M5.30997 11.475C7.00997 8.72499 9.12997 6.995 11.99 6.995C14.85 6.995 16.98 8.72499 18.69 11.475C18.89 11.795 18.89 12.205 18.69 12.525C16.98 15.275 14.86 17.005 12 17.005C9.13997 17.005 7.00997 15.265 5.30997 12.525C5.10997 12.205 5.10997 11.795 5.30997 11.475ZM8.48997 11.995C8.48997 13.925 10.06 15.495 11.99 15.495C13.92 15.495 15.49 13.925 15.49 11.995C15.49 10.065 13.92 8.495 11.99 8.495C10.06 8.495 8.48997 10.065 8.48997 11.995Z" />
</svg>

<?xml version="1.0" encoding="utf-8"?><svg width="24" height="24" xmlns="http://www.w3.org/2000/svg" viewBox="0 0 24 24"><path d="M13.49 11.995a1.5 1.5 0 1 1-3 0 1.5 1.5 0 0 1 3 0Z"/><path fill-rule="evenodd" clip-rule="evenodd" d="M5.31 11.475c1.7-2.75 3.82-4.48 6.68-4.48s4.99 1.73 6.7 4.48c.2.32.2.73 0 1.05-1.71 2.75-3.83 4.48-6.69 4.48-2.86 0-4.99-1.74-6.69-4.48-.2-.32-.2-.73 0-1.05Zm3.18.52c0 1.93 1.57 3.5 3.5 3.5s3.5-1.57 3.5-3.5-1.57-3.5-3.5-3.5-3.5 1.57-3.5 3.5Z"/></svg>
